assets/Shushing face/Flat/shushing_face_flat.svg

<svg width="32" height="32" viewBox="0 0 32 32" fill="none" xmlns="http://www.w3.org/2000/svg">
<path d="M15.9989 29.9978C25.3333 29.9978 29.9978 23.7303 29.9978 15.9989C29.9978 8.26751 25.3333 2 15.9989 2C6.66443 2 2 8.26751 2 15.9989C2 23.7303 6.66443 29.9978 15.9989 29.9978Z" fill="#FFB02E"/>
<path d="M10.4191 16.2244C12.742 16.2244 14.6251 14.3414 14.6251 12.0185C14.6251 9.69557 12.742 7.8125 10.4191 7.8125C8.09621 7.8125 6.21313 9.69557 6.21313 12.0185C6.21313 14.3414 8.09621 16.2244 10.4191 16.2244Z" fill="white"/>
<path d="M21.5683 16.3011C23.9123 16.3011 25.8126 14.4009 25.8126 12.0568C25.8126 9.71274 23.9123 7.8125 21.5683 7.8125C19.2242 7.8125 17.324 9.71274 17.324 12.0568C17.324 14.4009 19.2242 16.3011 21.5683 16.3011Z" fill="white"/>
<path d="M14 12C14 13.6569 12.6569 15 11 15C9.34315 15 8 13.6569 8 12C8 10.3431 9.34315 9 11 9C12.6569 9 14 10.3431 14 12Z" fill="#402A32"/>
<path d="M24 12C24 13.6569 22.6569 15 21 15C19.3431 15 18 13.6569 18 12C18 10.3431 19.3431 9 21 9C22.6569 9 24 10.3431 24 12Z" fill="#402A32"/>
<path d="M13 20C12.4477 20 12 20.4477 12 21C12 21.5523 12.4477 22 13 22H19C19.5523 22 20 21.5523 20 21C20 20.4477 19.5523 20 19 20H13Z" fill="#402A32"/>
<path d="M18.79 22.02C18.02 22.02 18.02 21.25 18.02 21.25V18.02C18.02 16.92 17.12 16.02 16.02 16.02C14.92 16.02 14.02 16.92 14.02 18.02V26.25V27.72C14.02 30.06 15.92 31.95 18.25 31.95H18.78C21.12 31.95 23.01 30.05 23.01 27.72V26.25C23.02 23.92 21.3 22.02 18.79 22.02Z" fill="#FF822D"/>
</svg>

<svg xmlns="http://www.w3.org/2000/svg" width="32" height="32" fill="none"><path fill="#FFB02E" d="M15.999 29.998c9.334 0 13.999-6.268 13.999-14 0-7.73-4.665-13.998-14-13.998C6.665 2 2 8.268 2 15.999c0 7.731 4.664 13.999 13.999 13.999Z"/><path fill="#fff" d="M10.42 16.224a4.206 4.206 0 1 0 0-8.411 4.206 4.206 0 0 0 0 8.411ZM21.568 16.301a4.244 4.244 0 1 0 0-8.489 4.244 4.244 0 0 0 0 8.49Z"/><path fill="#402A32" d="M14 12a3 3 0 1 1-6 0 3 3 0 0 1 6 0ZM24 12a3 3 0 1 1-6 0 3 3 0 0 1 6 0ZM13 20a1 1 0 1 0 0 2h6a1 1 0 1 0 0-2h-6Z"/><path fill="#FF822D" d="M18.79 22.02c-.77 0-.77-.77-.77-.77v-3.23c0-1.1-.9-2-2-2s-2 .9-2 2V27.72c0 2.34 1.9 4.23 4.23 4.23h.53c2.34 0 4.23-1.9 4.23-4.23v-1.47c.01-2.33-1.71-4.23-4.22-4.23Z"/></svg>
